svg/color/bsy.svg

<?xml version="1.0" encoding="UTF-8" ?>
<!DOCTYPE svg PUBLIC "-//W3C//DTD SVG 1.1//EN" "http://www.w3.org/Graphics/SVG/1.1/DTD/svg11.dtd">
<svg width="247pt" height="250pt" viewBox="0 0 247 250" version="1.1" xmlns="http://www.w3.org/2000/svg">
<g id="#ffffffff">
<path fill="#ffffff" opacity="1.00" d=" M 0.00 0.00 L 247.00 0.00 L 247.00 250.00 L 0.00 250.00 L 0.00 0.00 M 149.34 4.30 C 132.49 5.31 116.16 11.62 102.62 21.62 C 82.05 37.15 68.57 62.14 67.95 88.02 C 66.60 107.29 72.29 126.86 83.46 142.60 C 84.26 144.32 86.48 145.89 86.06 147.87 C 81.20 153.07 75.50 157.41 70.26 162.23 C 62.53 169.53 54.27 176.23 46.49 183.47 C 36.37 193.04 25.52 201.80 15.42 211.38 C 11.16 215.03 5.96 218.45 4.42 224.19 C 4.03 227.87 3.94 231.70 4.77 235.33 C 7.55 241.91 14.96 246.16 22.04 245.32 C 27.14 244.61 31.42 241.40 34.97 237.86 C 40.41 232.28 46.44 227.34 52.28 222.20 C 56.78 218.41 60.86 214.13 65.46 210.46 C 77.66 199.99 89.15 188.75 101.46 178.41 C 105.01 175.37 107.91 171.50 112.07 169.24 C 116.78 170.75 120.90 173.70 125.63 175.25 C 131.15 177.04 136.79 178.61 142.55 179.45 C 163.02 182.96 184.66 178.21 202.20 167.19 C 225.83 152.80 241.90 126.68 243.66 99.03 C 243.49 94.07 243.66 89.10 243.63 84.14 C 242.83 76.76 241.36 69.41 238.72 62.45 C 232.83 44.68 220.26 29.60 205.05 18.96 C 188.79 8.11 168.86 2.58 149.34 4.30 Z" />
<path fill="#ffffff" opacity="1.00" d=" M 100.99 48.96 C 112.43 34.24 129.99 24.50 148.52 22.54 C 153.68 22.70 158.85 22.60 164.02 22.50 C 177.53 24.52 190.65 29.99 201.02 38.98 C 201.92 39.95 202.71 41.02 203.51 42.07 C 197.48 48.85 190.07 54.26 183.47 60.47 C 175.35 68.06 166.78 75.12 158.66 82.71 C 156.19 84.84 153.52 86.82 151.76 89.63 C 155.52 89.87 159.29 89.95 163.05 90.14 C 162.92 114.10 163.04 138.08 162.93 162.05 C 158.60 161.99 154.28 162.15 149.95 162.06 C 140.30 161.22 130.97 158.12 122.39 153.68 C 117.46 151.16 113.31 147.44 108.85 144.19 C 104.96 141.37 102.49 137.14 99.53 133.44 C 90.66 121.93 86.25 107.43 85.67 93.03 C 85.74 77.20 91.16 61.37 100.99 48.96 Z" />
<path fill="#ffffff" opacity="1.00" d=" M 212.78 88.25 C 219.12 89.61 226.23 94.50 225.21 101.83 C 220.95 101.92 216.70 101.92 212.45 101.71 C 212.53 97.23 212.24 92.72 212.78 88.25 Z" />
<path fill="#ffffff" opacity="1.00" d=" M 198.05 101.91 C 197.40 94.92 203.65 89.14 210.38 88.79 C 210.74 93.14 210.75 97.52 210.35 101.87 C 206.26 102.13 202.15 102.29 198.05 101.91 Z" />
<path fill="#ffffff" opacity="1.00" d=" M 197.31 104.04 C 201.76 103.60 206.24 103.64 210.69 104.07 C 210.69 109.65 210.68 115.23 210.75 120.82 C 206.28 121.12 201.79 121.15 197.32 120.82 C 197.36 115.23 197.34 109.63 197.31 104.04 Z" />
<path fill="#ffffff" opacity="1.00" d=" M 212.73 103.91 C 216.42 103.86 220.13 103.60 223.81 104.03 C 224.01 104.30 224.39 104.84 224.59 105.11 C 223.45 110.38 221.87 115.63 219.60 120.52 C 217.42 121.35 215.01 120.91 212.74 120.99 C 212.45 115.30 212.47 109.60 212.73 103.91 Z" />
</g>
<g id="#f9bf20ff">
<path fill="#f9bf20" opacity="1.00" d=" M 149.34 4.30 C 168.86 2.58 188.79 8.11 205.05 18.96 C 220.26 29.60 232.83 44.68 238.72 62.45 C 241.36 69.41 242.83 76.76 243.63 84.14 C 243.66 89.10 243.49 94.07 243.66 99.03 C 241.90 126.68 225.83 152.80 202.20 167.19 C 184.66 178.21 163.02 182.96 142.55 179.45 C 136.79 178.61 131.15 177.04 125.63 175.25 C 120.90 173.70 116.78 170.75 112.07 169.24 C 107.91 171.50 105.01 175.37 101.46 178.41 C 89.15 188.75 77.66 199.99 65.46 210.46 C 60.86 214.13 56.78 218.41 52.28 222.20 C 46.44 227.34 40.41 232.28 34.97 237.86 C 31.42 241.40 27.14 244.61 22.04 245.32 C 14.96 246.16 7.55 241.91 4.77 235.33 C 3.94 231.70 4.03 227.87 4.42 224.19 C 5.96 218.45 11.16 215.03 15.42 211.38 C 25.52 201.80 36.37 193.04 46.49 183.47 C 54.27 176.23 62.53 169.53 70.26 162.23 C 75.50 157.41 81.20 153.07 86.06 147.87 C 86.48 145.89 84.26 144.32 83.46 142.60 C 72.29 126.86 66.60 107.29 67.95 88.02 C 68.57 62.14 82.05 37.15 102.62 21.62 C 116.16 11.62 132.49 5.31 149.34 4.30 M 100.99 48.96 C 91.16 61.37 85.74 77.20 85.67 93.03 C 86.25 107.43 90.66 121.93 99.53 133.44 C 102.49 137.14 104.96 141.37 108.85 144.19 C 113.31 147.44 117.46 151.16 122.39 153.68 C 130.97 158.12 140.30 161.22 149.95 162.06 C 154.28 162.15 158.60 161.99 162.93 162.05 C 163.04 138.08 162.92 114.10 163.05 90.14 C 159.29 89.95 155.52 89.87 151.76 89.63 C 153.52 86.82 156.19 84.84 158.66 82.71 C 166.78 75.12 175.35 68.06 183.47 60.47 C 190.07 54.26 197.48 48.85 203.51 42.07 C 202.71 41.02 201.92 39.95 201.02 38.98 C 190.65 29.99 177.53 24.52 164.02 22.50 C 158.85 22.60 153.68 22.70 148.52 22.54 C 129.99 24.50 112.43 34.24 100.99 48.96 M 212.78 88.25 C 212.24 92.72 212.53 97.23 212.45 101.71 C 216.70 101.92 220.95 101.92 225.21 101.83 C 226.23 94.50 219.12 89.61 212.78 88.25 M 198.05 101.91 C 202.15 102.29 206.26 102.13 210.35 101.87 C 210.75 97.52 210.74 93.14 210.38 88.79 C 203.65 89.14 197.40 94.92 198.05 101.91 M 197.31 104.04 C 197.34 109.63 197.36 115.23 197.32 120.82 C 201.79 121.15 206.28 121.12 210.75 120.82 C 210.68 115.23 210.69 109.65 210.69 104.07 C 206.24 103.64 201.76 103.60 197.31 104.04 M 212.73 103.91 C 212.47 109.60 212.45 115.30 212.74 120.99 C 215.01 120.91 217.42 121.35 219.60 120.52 C 221.87 115.63 223.45 110.38 224.59 105.11 C 224.39 104.84 224.01 104.30 223.81 104.03 C 220.13 103.60 216.42 103.86 212.73 103.91 Z" />
</g>
</svg>

<?xml version="1.0" encoding="utf-8"?>
<!-- Generator: Adobe Illustrator 26.0.3, SVG Export Plug-In . SVG Version: 6.00 Build 0)  -->
<svg version="1.1" id="Layer_1" xmlns="http://www.w3.org/2000/svg" xmlns:xlink="http://www.w3.org/1999/xlink" x="0px" y="0px"
	 viewBox="0 0 247 250" style="enable-background:new 0 0 247 250;" xml:space="preserve">
<style type="text/css">
	.st0{fill:#FFFFFF;}
	.st1{fill:#F9BF20;}
</style>
<g id="_x23_ffffffff">
	<path class="st0" d="M101,49c11.4-14.7,29-24.5,47.5-26.4c5.2,0.2,10.3,0.1,15.5,0c13.5,2,26.6,7.5,37,16.5c0.9,1,1.7,2,2.5,3.1
		c-6,6.8-13.4,12.2-20,18.4c-8.1,7.6-16.7,14.7-24.8,22.2c-2.5,2.1-5.1,4.1-6.9,6.9c3.8,0.2,7.5,0.3,11.3,0.5
		c-0.1,24,0,47.9-0.1,71.9c-4.3-0.1-8.6,0.1-13,0c-9.6-0.8-19-3.9-27.6-8.4c-4.9-2.5-9.1-6.2-13.5-9.5c-3.9-2.8-6.4-7.1-9.3-10.8
		c-8.9-11.5-13.3-26-13.9-40.4C85.7,77.2,91.2,61.4,101,49z"/>
	<path class="st0" d="M212.8,88.2c6.3,1.4,13.4,6.2,12.4,13.6c-4.3,0.1-8.5,0.1-12.8-0.1C212.5,97.2,212.2,92.7,212.8,88.2z"/>
	<path class="st0" d="M198.1,101.9c-0.7-7,5.6-12.8,12.3-13.1c0.4,4.3,0.4,8.7,0,13.1C206.3,102.1,202.1,102.3,198.1,101.9z"/>
	<path class="st0" d="M197.3,104c4.4-0.4,8.9-0.4,13.4,0c0,5.6,0,11.2,0.1,16.8c-4.5,0.3-9,0.3-13.4,0
		C197.4,115.2,197.3,109.6,197.3,104z"/>
	<path class="st0" d="M212.7,103.9c3.7-0.1,7.4-0.3,11.1,0.1c0.2,0.3,0.6,0.8,0.8,1.1c-1.1,5.3-2.7,10.5-5,15.4
		c-2.2,0.8-4.6,0.4-6.9,0.5C212.4,115.3,212.5,109.6,212.7,103.9z"/>
</g>
<g id="_x23_f9bf20ff">
	<path class="st1" d="M149.3,4.3c19.5-1.7,39.4,3.8,55.7,14.7c15.2,10.6,27.8,25.7,33.7,43.5c2.6,7,4.1,14.3,4.9,21.7
		c0,5-0.1,9.9,0,14.9c-1.8,27.7-17.8,53.8-41.5,68.2c-17.5,11-39.2,15.8-59.6,12.3c-5.8-0.8-11.4-2.4-16.9-4.2
		c-4.7-1.6-8.8-4.5-13.6-6c-4.2,2.3-7.1,6.1-10.6,9.2c-12.3,10.3-23.8,21.6-36,32.1c-4.6,3.7-8.7,7.9-13.2,11.7
		c-5.8,5.1-11.9,10.1-17.3,15.7c-3.6,3.5-7.8,6.8-12.9,7.5c-7.1,0.8-14.5-3.4-17.3-10c-0.8-3.6-0.7-7.5-0.3-11.1
		c1.5-5.7,6.7-9.2,11-12.8c10.1-9.6,20.9-18.3,31.1-27.9c7.8-7.2,16-13.9,23.8-21.2c5.2-4.8,10.9-9.2,15.8-14.4
		c0.4-2-1.8-3.5-2.6-5.3C72.3,126.9,66.6,107.3,67.9,88c0.6-25.9,14.1-50.9,34.7-66.4C116.2,11.6,132.5,5.3,149.3,4.3 M101,49
		C91.2,61.4,85.7,77.2,85.7,93c0.6,14.4,5,28.9,13.9,40.4c3,3.7,5.4,7.9,9.3,10.8c4.5,3.2,8.6,7,13.5,9.5c8.6,4.4,17.9,7.5,27.6,8.4
		c4.3,0.1,8.7-0.1,13,0c0.1-24,0-48,0.1-71.9c-3.8-0.2-7.5-0.3-11.3-0.5c1.8-2.8,4.4-4.8,6.9-6.9c8.1-7.6,16.7-14.7,24.8-22.2
		c6.6-6.2,14-11.6,20-18.4c-0.8-1-1.6-2.1-2.5-3.1c-10.4-9-23.5-14.5-37-16.5c-5.2,0.1-10.3,0.2-15.5,0C130,24.5,112.4,34.2,101,49
		 M212.8,88.2c-0.5,4.5-0.2,9-0.3,13.5c4.2,0.2,8.5,0.2,12.8,0.1C226.2,94.5,219.1,89.6,212.8,88.2 M198.1,101.9
		c4.1,0.4,8.2,0.2,12.3,0c0.4-4.4,0.4-8.7,0-13.1C203.6,89.1,197.4,94.9,198.1,101.9 M197.3,104c0,5.6,0.1,11.2,0,16.8
		c4.5,0.3,9,0.3,13.4,0c-0.1-5.6-0.1-11.2-0.1-16.8C206.2,103.6,201.8,103.6,197.3,104 M212.7,103.9c-0.3,5.7-0.3,11.4,0,17.1
		c2.3-0.1,4.7,0.4,6.9-0.5c2.3-4.9,3.8-10.1,5-15.4c-0.2-0.3-0.6-0.8-0.8-1.1C220.1,103.6,216.4,103.9,212.7,103.9z"/>
</g>
</svg>
